dist/svgs/unicons/line/pathfinder-unite.svg

<svg xmlns="http://www.w3.org/2000/svg" viewBox="0 0 24 24"><path d="M21 7.54h-4.54V3a1 1 0 00-1-1H3a1 1 0 00-1 1v12.46a1 1 0 001 1h4.54V21a1 1 0 001 1H21a1 1 0 001-1V8.54a1 1 0 00-1-1zM20 20H9.54v-4.54a1 1 0 00-1-1H4V4h10.46v4.54a1 1 0 001 1H20z"/></svg>

<svg xmlns="http://www.w3.org/2000/svg" viewBox="0 0 24 24"><path d="M21,7.54H16.46V3a1,1,0,0,0-1-1H3A1,1,0,0,0,2,3V15.46a1,1,0,0,0,1,1H7.54V21a1,1,0,0,0,1,1H21a1,1,0,0,0,1-1V8.54A1,1,0,0,0,21,7.54ZM20,20H9.54V15.46a1,1,0,0,0-1-1H4V4H14.46V8.54a1,1,0,0,0,1,1H20Z"/></svg>
